public/assets/images/case_studies/icons/heart.svg

<?xml version="1.0" encoding="UTF-8"?>
<svg width="40px" height="35px" viewBox="0 0 40 35" version="1.1" xmlns="http://www.w3.org/2000/svg" xmlns:xlink="http://www.w3.org/1999/xlink">
    <!-- Generator: Sketch 55.1 (78136) - https://sketchapp.com -->
    <title>noun_Heart_1742986</title>
    <desc>Created with Sketch.</desc>
    <g id="Case-Study" stroke="none" stroke-width="1" fill="none" fill-rule="evenodd">
        <g id="Calling-Case-Study" transform="translate(-1011.000000, -1723.000000)" fill="#FF968D" fill-rule="nonzero">
            <g id="noun_Heart_1742986" transform="translate(1011.000000, 1723.000000)">
                <g id="Group">
                    <path d="M10.874038,0.192453325 C8.202288,0.192453325 5.530638,1.20704107 3.5146875,3.25255814 C-0.5173126,7.34350986 -0.5121126,13.8989064 3.5146875,17.9925922 L18.905288,33.6415198 C19.1884084,33.9295369 19.5808656,34.0925297 19.991238,34.0925297 C20.4016104,34.0925297 20.7940676,33.9295369 21.077188,33.6415198 C26.211238,28.4322398 31.349288,23.2170455 36.483438,18.007717 C40.515338,13.9166974 40.515338,7.35872676 36.483438,3.26770717 C32.451488,-0.823297871 25.796638,-0.823385129 21.764688,3.26770717 L19.999038,5.04014412 L18.233438,3.25255814 C16.217438,1.20705077 13.545788,0.192453325 10.874038,0.192453325 L10.874038,0.192453325 Z M10.874038,3.04047167 C12.739088,3.04047167 14.616788,3.78560052 16.077188,5.26737963 L18.920938,8.16084022 C19.2040569,8.44884179 19.5965032,8.61182468 20.006863,8.61182468 C20.4172228,8.61182468 20.8096691,8.44884179 21.092788,8.16084022 L23.920938,5.28252866 C26.841688,2.31891228 31.390788,2.31898015 34.311538,5.28252866 C37.232288,8.24606263 37.232288,13.0445009 34.311538,16.0080445 C29.541438,20.848076 24.769138,25.6808359 19.999038,30.5208189 L5.686538,15.9929149 C2.7673375,13.0252071 2.7657875,8.23084088 5.686538,5.26737963 C7.146888,3.78561022 9.008988,3.04047167 10.874038,3.04047167 L10.874038,3.04047167 Z" id="Shape"></path>
                </g>
            </g>
        </g>
    </g>
</svg>

<svg width="40" height="35" xmlns="http://www.w3.org/2000/svg"><path d="M10.874.192c-2.672 0-5.343 1.015-7.36 3.06-4.031 4.092-4.026 10.647 0 14.74l15.391 15.65c.283.288.676.45 1.086.45.41 0 .803-.162 1.086-.45l15.406-15.634a10.493 10.493 0 0 0 0-14.74c-4.032-4.091-10.686-4.091-14.718 0L19.999 5.04l-1.766-1.787c-2.016-2.046-4.687-3.06-7.359-3.06zm0 2.848c1.865 0 3.743.746 5.203 2.227l2.844 2.894c.283.288.676.45 1.086.45.41 0 .803-.162 1.086-.45l2.828-2.878c2.92-2.964 7.47-2.964 10.39 0 2.921 2.963 2.921 7.762 0 10.725-4.77 4.84-9.542 9.673-14.312 14.513L5.687 15.993c-2.92-2.968-2.921-7.762 0-10.726 1.46-1.481 3.322-2.227 5.187-2.227z" fill="#FF968D"/></svg>
